X:1
T:Orlando di Lasso 1532 - 1594
T:Audite nova
%%score [ 1 2 3 4 ]
L:1/8
Q:1/4=180
M:4/4
K:C
V:1 treble nm="Discantus"
V:2 treble nm="Altus"
V:3 treble nm="Tenor"
V:4 treble nm="Bassus"
V:1
 x8 | z4 g8 e8 | c2 d2 e2 A2 f4 e12 | d2 c2 B2 c2 d8 | c8 B2 A2 !fermata!x8 || %5
w: |Au- di-|te * * * * no-||va! * *|
w: |||||
[M:4/2] c4 c2 c2 e2 d2 ^c4 | d2 B2 B2 B2"^(  )" c4 e4 | d2 c4 B2 c4 z2 c2 | dddd d2 c2 e4 z2 c2 | %9
w: Der Bawr von E- selß- kir-|chen, der hat ein fai- ste|ga- ga * Gans, das|gy- ri gy- ri ga- ga Gans, *|
w: |||* * * * * * * das|
 dddd d2 G2 c4 z2 c2 | c2 c2 f4 e4 z4 | G4 c4 z4 G4 | c4 f4 e2 d4 ^c2 | d4 z2 A2 c2 c3 B/A/ B2 | %14
w: * * * * * * * die|hat ein lan- gen|fai- sten, di-|cken, wai- de- li- chen|Hals. Bring her die * * *|
w: gy- ri gy- ri ga- ga Gans, *|||||
 c8 z8 | z2 A2 A4 B2 c4 B2 | (3:2:2c8 e4 (3:2:2f4 e8 | (3:2:2d4 d8 (3:2:2d4 d8 | %18
w: Gans,|hab dirs mein trau- ter|Hans! Rupff sie, zupf|sie, feud sie, brat|
w: ||||
 (3:2:2d4 d8 (3:2:2e4 d8 | B8 c4 c2 c2 | d4 c4 d4 c4 | B4 z2 c2 c4 d2 c2 | d4 c4 B8 | %23
w: sie, zreiß sie, friß|sie! Das ist Sanct|Mar- tins Vö- ge-|lein, dem kön- nen wir|nit Feind seyn!|
w: |||||
 z2 c2 e4 z4 z2 c2 | c2 B2 c2 A2 G2 c2 A4 | c2 B4 c2 c4 z2 c2 | B4 A4 G8 | z8 A4 B2 d2 | %28
w: Knecht Haintz, bring|her ein gu- ten Wein und schenck|uns dapf- fer ein! Laß|umb- her gahn,|in Got- tes|
w: |||||
 ^c4 d2 e2 f4 e4 | d4 d4 c4 z2 f4 | e2 d2 ^c2 d2 e4 d2"^(  )" =c2 x2 | %31
w: Nam' trin- cken wir gut|Wein und Bier auff|die gsot- ne Gans, auff die brat-|
w: |||
 B2 c2 d4 c2"^(  )" B2 A2 x2 | B4 d4 e4 g6 | c2 d6 c2 c8 x2 | B4 B4 d4 x8 | e4 g6 c2 d6 | %36
w: ne Gans, auff die jun- ge|Gans, daß sie uns|nit scha * *|den mag, *||
w: |||* * daß|sie uns nit scha-|
 c2 c8 B4"^-" x16 |] x16 | x16 |] %39
w: |||
w: * \- den|||
V:2
 x8 | G8 E4 C4 x4 | G4 G4 z2 c2 A4 x8 | G8 C8 | D4 B,4 G8 x4 || !fermata!x12- x4 | %6
w: |Au- di- te|no- va, au- di-|te, au-|di- te no-|va!|
w: ||||||
[M:4/2] G4 G2 G2 c2 A2 A4 | ^F2 G2 G2 G2 G3 A B2 c2 | A4 G4 G4 z2 G2 | _BBBB B2 A2 c4 z2 G2 | %10
w: Der Bawr von E- selß- kir-|chen, der hat ein fai \- * ste|ga- ga Gans, das|gy- ri gy- ri ga- ga Gans, *|
w: |||* * * * * * * das|
 GGGG D2 D2 G4 z2 G2 | A2 A2 c4 c4 z4 | c4 A4 z4 c4 | A4 z2 c4 B2 A2 A2 | %14
w: * * * * * * * die|hat ein lan- gen|fai- sten, di-|cken, wai- de- li- chen|
w: gy- ri gy- ri ga- ga Gans, *||||
 ^F4 z2"^(  )" =F2 GFEF D2 D2 | C8 z8 | z2 F2 F2 E2 G4 G4 | (3:2:2G8 c4 (3:2:2c4 c8 | %18
w: Hals. Bring her * * * * die|Gans,|hab dirs, mein trau- ter|Hans! Rupff sie, zupf|
w: ||||
 (3:2:2B4 A8 (3:2:2B4 A8 | (3:2:2B4 A8 (3:2:2c4 B8 | G8 G4 G2 A2 | _B4 G4 B4 G4 | %22
w: sie, sied sie, brat|sie, zreiß sie, friß|sie! Das ist Sanct|Mar- tins Vö- ge-|
w: ||||
 G4 z2 G2 G4 _B2 A2 | _B4 G4 G8 | z2 G2 c4 z4 z2 C2 | E2 D2 E2 F2 G2 G2 F4 | E2 G4 A2 G8 | %27
w: lein, dem kön- nen wir|nit Feind seyn!|Knecht Haintz, bring|her ein gu- ten Wein und schenck|uns dapf- fer ein!|
w: |||||
 z2 G2 F4 E4 D4 | z8 ^F4 G2 A2 | A4 B2 B2 c6 c2 x2 | A4 D4 G4 c4 x2 | c4 A2 A2 A2 c4 A2 | %32
w: Laß umb- her gahn,|in Got- tes|Nam' trin- cken wir gut|Wein und Bier auff|die gsot- ne Gans, auff die|
w: |||||
 A2 ^F2 G2 _B4 A2 G2"^(  )" =F2 x2 | G4 B4 c4 G8 | _B4 A4 G4 G8 | z4 B4 x10 | c4 G8 _B4 x14 |] %37
w: brat- ne Gans, auff die jun- ge|Gans, daß sie uns|nit scha- den mag,|daß|sie uns nit|
w: |||||
 A4 G4"^-" x8- | x16 |] %39
w: scha den mag.||
w: ||
V:3
 x8 | z8 G8 x4 | E8 C8 x8 | z4 C4 E4 F4 | G6 F2 E8 x4 || !fermata!x12- x4 | %6
w: |Au-|di- te,|au- di- te|no- * *|va!|
[M:4/2] E4 E2 E2 G2 F2 E4 | D2 D2 D2 D2 E4 G4 | F4 D4 E4 z2 E2 | FFFF F2 F2 G4 z2 E2 | %10
w: Der Bawr von E- selß- kir-|chen, der hat ein fai- ste|ga- ga Gans, das|gy- ri gy- ri ga- ga Gans, das|
 B,B,B,B, B,2 B,2 E4 z2 E2 | F2 E2 A4 G4 G4 | E4 z4 G4 E4 | z4 A4 G4 F2 E2 | D8 z8 | %15
w: gy- ri gy- ri ga- ga Gans, die|hat ein lan- gen fai-|sten, di- cken,|wai- de- li- chen|Hals.|
 z2 E2 F2 E2 G3 F E2 D2 | C4 C4 D2 E2 D2 D2 | (3:2:2E8 G4 (3:2:2A4 G8 | %18
w: hab dirs, mein trau- * \- ter|Hans, hab dirs, mein trau- ter|Hans! Rupff sie, zupf|
 (3:2:2G4 ^F8 (3:2:2G4 !courtesy!^F8 | (3:2:2G4 ^F8 (3:2:2G4 G8 | D8 E4 E2 E2 | F4 E4 F4 E4 | %22
w: sie, sied sie, brat|sie, zreiß sie, friß|sie! Das ist Sanct|Mar- tins Vö- ge-|
 D4 z2 E2 E4 F2 E2 | F4 E4 D4 z2 D2 | E4 z2 C2 E2 D2 E2 F2 | G4 z4 E4 C4 | C2 D4 F2 E8 | %27
w: lein, dem kön- nen wir|nit Feind seyn! Knecht|Haintz, bring her ein gu- ten|Wein und schenck|uns dapf- fer ein!|
 z8 z4 z2 G2 | F4 E4 D2 D2 D2"^(  )" F2 | E4 G2 G2 A4 G4 x2 | ^F4 G4 E4 A6 | G2 F2 E2 F2 G4 F2 E2 | %32
w: Laß|umb- her gahn, in Got- tes|Nam' trin- cken wir gut|Wein und Bier auff|die gsot- ne Gans, auff die brat-|
 D2 E2 F4 E2 D2 C2 x4 | D8 z4 D4 x4 | E4 G4 F4 E4 x4 | D8 D8 x2 | z4 D4 E4 G4 x14 |] F4 E4 D8 | %38
w: ne Gans, auff die jun- ge|Gans, daß|sie uns nit scha-|den mag,|daß sie uns|nit scha- den|
"^-" x16 |] %39
w: |
V:4
 x8 | z16 x4 | C8 A,4 F,4 x8 | C6 B,2 A,8 | !fermata!x16- x4 || x12 x4 | %6
w: ||Au- di- te|no * *|va!||
[M:4/2][K:treble-8] c4 c2 c2 c2 d2 A4 | D2 G2 G2 G2 c4 E4 | F4 G4 C4 z2 c2 | _BBBB B2 F2 c4 z2 c2 | %10
w: Der Bawr von E- selß- kir-|chen, der hat ein fai- ste|ga- ga Gans, das|gy- ri gy- ri ga- ga Gans, das|
 GGGG G2 G2 C4 z2 c2 | A2 A2 F4 c4 G4 | c4 z4 G4 c4 | z4 F4 G4 A2 A2 | D8 z8 | z2 A2 A4 B2 c4 B2 | %16
w: gy- ri gy- ri ga- ga Gans, die|hat ein lan- gen fai-|sten, di- cken,|wai- de- li- chen|Hals.|hab dirs, mein trau- ter|
 c2 F2 F2 A2 G4 G4 | (3:2:2c8 c4 (3:2:2F4 c8 | (3:2:2G4 d8 (3:2:2G4 D8 | (3:2:2G4 d8 (3:2:2c4 G8 | %20
w: Hans, hab dirs, mein trau- ter|Hans! Rupff sie, zupf|sie, sied sie, brat|sie, zreiß sie, friß|
 G8 c4 c2 c2 | _B4 c4 !courtesy!_B4 c4 | G4 z2 c2 c4 _B2 c2 | _B4 c4 G4 z2 G2 | %24
w: sie! Das ist Sanct|Mar- tins Vö- ge-|lein, dem kön- nen wir|nit Feind seyn! Knecht|
 c4 z2 c2 c2 B2 c2 A2 | G4 z4 c4 F4 | A2 G4 F2 c8 | z8 z2 c2 B4 | A4 G4 z2 D2 G2 D2 | %29
w: Haintz, bring her ein gu- ten|Wein und schenck|uns dapf- fer ein!|Laß umb-|her gahn, in Got- tes|
 A4 G2 G2 F4 c4 x2 | d4 B4 c4 F4 x2 | c4 d2 A2 d2 c4 d2 | A2 d2 c2 _B4 c2 G2 A2 x2 | G8 z4 B4 x4 | %34
w: Nam' trin- cken wir gut|Wein und Bier auff|die gsot- ne Gans, auff die|brat- ne Gans, auff die jun- ge|Gans, daß|
 c4 G4 A4 c4 x4 | G8 G8 x2 | z4 B4 c4 G4 x14 |] A4 c4 G8 |"^-" x16 |] %39
w: sie uns nit scha-|den mag,|daß sie uns|nit scha- den||

